X:1
T:Title
%%score { ( 1 3 ) | ( 2 4 ) }
L:1/8
M:4/4
K:Eb
V:1 treble nm="Grand Piano"
V:3 treble 
V:2 bass 
V:4 bass 
V:1
 z4 z2[Q:1/4=108] E>F | GG G2 G2 G2 | [GB]6 [GB]>[GB] | c2 e>e d2 c2 |[M:3/4] [GB]6 | %5
[M:1/4] [GB]>[Ac] |[M:4/4] [GB]2 [FA]>[FA] [FA]2 [=EG]2 | [FA]6 [DB]>[Dc] | B2 G>G G2 _G2 | %9
[M:3/4] G6 |[M:1/4] [GB]>[GB] |[M:4/4] [_Gc]2 [=GB]2 [_G=A]2 [=GB]2 | [Ge]6 E>[EF] | %13
 [EG] [GB]2 [GB] [EG]2 [DF]2 |[M:3/4] [B,E]6 |[M:1/4] [EG]>[FA] | %16
[M:4/4] [GB]>[GB] [GB]2 [GB]2 [GB]>[GB] | c>c c2 [GB]2 [GB]>[GB] | [Ge]>[Ge] [Ee]2 [_Ge]2 [E=A]2 | %19
[M:9/8] B6- B z z |[M:4/4] [B,EG]2 [B,FA]2 [GB]2 [GB]>[GB] | %21
[M:9/8] [_Gc]2 [=GB]- [GB] [Ge]2- [Ge][=A,E]>[A,E_G] |[M:4/4] [B,EG] [EGB]2 [EGB] [B,EG]2 [A,DF]2 | %23
[M:3/4] [G,E]6 |] %24
V:2
 z4 z2 [E,G,B,]>[E,A,B,] | [E,B,E][E,B,E] [E,B,E]2 [E,B,E]2 [E,B,E]2 | [E,E]6 [E,E]>[E,E] | %3
 [A,EA]2 [A,CA]>[A,CA] [A,DA]2 [A,EA]2 |[M:3/4][K:bass] [E,E]6 |[M:1/4] [E,B,]>[E,B,] | %6
[M:4/4] [B,,B,]2 [B,,B,]>[B,,B,] [B,,B,]2 [B,,B,]2 | [B,,B,]6 [B,,A,]>[B,,A,] | %8
 [E,G,E]2 [E,B,E]>[E,B,E] [E,B,E]2 [E,=A,E]2 |[M:3/4] [E,B,E]6 |[M:1/4] [E,B,]>[E,B,] | %11
[M:4/4] [E,=A,]2 [E,B,]2 [E,C]2 [E,E]2 | [E,B,]6 [C,=A,]>[C,A,] | %13
 [B,,B,] [B,,B,]2 [B,,B,] [B,,B,]2 [B,,A,]2 |[M:3/4] [E,G,]6 |[M:1/4] [E,B,]>[E,B,] | %16
[M:4/4] [E,E]>[E,E] [E,E]2 [E,E]2 [E,E]>[E,E] | %17
 [A,EA]>[A,EA] [A,EA]2[K:bass] [E,E]2 [E,B,]>[E,B,] | [C,C]>[C,C] [C,G,]2 [=B,,=A,]2 [B,,_G,]2 | %19
[M:9/8] G,2 A, G, F,2- F,D,>D, |[M:4/4] E,2 E,2 [E,E]2 [E,E]>[E,E] | %21
[M:9/8] [E,E]2 [E,E]- [E,E] [E,B,]2- [E,B,]C,>C, |[M:4/4] B,, B,,2 B,, B,,2 B,,2 |[M:3/4] E,6 |] %24
V:3
 x8 | x8 | x8 | x8 |[M:3/4] x6 |[M:1/4] x2 |[M:4/4] x8 | x8 | x8 |[M:3/4] x6 |[M:1/4] x2 | %11
[M:4/4] x8 | x8 | x8 |[M:3/4] x6 |[M:1/4] x2 |[M:4/4] x8 | x8 | x8 | %19
[M:9/8] E2 F E D2- D[B,FA]>[B,FA] |[M:4/4] x8 |[M:9/8] x9 |[M:4/4] x8 |[M:3/4] x6 |] %24
V:4
 x8 | x8 | x8 | x8 |[M:3/4][K:bass] x6 |[M:1/4] x2 |[M:4/4] x8 | x8 | x8 |[M:3/4] x6 |[M:1/4] x2 | %11
[M:4/4] x8 | x8 | x8 |[M:3/4] x6 |[M:1/4] x2 |[M:4/4] x8 | x4[K:bass] x4 | x8 | %19
[M:9/8] B,,6- B,, z z |[M:4/4] x8 |[M:9/8] x9 |[M:4/4] x8 |[M:3/4] x6 |] %24

